X: 11
T: Jenny Lind
R: polka
M: 2/4
L: 1/8
K: Gmaj
[dd']>[dd'] [dd']>[dd'] | [d2d'2]- [dd']>[dd'] | [dd']>[dd'] [dd']>[dd'] | [d2d'2]- [dd'] ^c/d/ | d2- d ||.d.b .c.a | .Bg- g/d/B/G/ | .Fe- e/d/c/A/ | .Gg- g/d/B/c/ |.d.b .c.a | .Bg- g/d/B/G/ | .Fe- e/d/c/A/ | G{A/}G/F/ G :|.g.f .eA | .f.e .d(d | .e).B .^c.A | f2 dA | .g.f .eA | .f.e .d(d | .e).B .^c.A | d2- d/c/B/c/ ||.d.b .c.a | .Bg- g/d/B/G/ | .Fe- e/d/c/A/ | .Gg- g/(d/B/c/) |.d.b .c.a | .Bg- g/d/B/G/ | .Fe- e/d/c/A/ | G{A/}G/F/ G :|.g.e a>g | (gf/e/ f)(d/e/) | .f.d g>f | (fe/^d/ e(e/f/) | .g.e c'>b | (ba/^g/) a(d/c/) | B/c/d/e/ f/g/a/b/ | c'c' c' :|.d.b .c.a | .Bg- g/d/B/G/ | .Fe- e/d/c/A/ | .Gg- g/(d/B/c/) |.d.b .c.a | .Bg- g/d/B/G/ | .Fe- e/d/c/A/ | G{A/}G/F/ G |]


Tune 4883	Setting 17316

